LUTs/Standing Woman Cubist LUT.CUBE
#Created by: Adobe Photoshop Export Color Lookup Plugin
TITLE "Standing Woman Cubist Test.psb"
#LUT size
LUT_3D_SIZE 5
#data domain
#LUT data points
DOMAIN_MIN 0.000000 0.000000 0.000000
DOMAIN_MAX 0.903226 0.903226 0.903226
1.000000 1.000000 0.768616
1.000000 1.000000 0.768616
1.000000 1.000000 0.768616
1.000000 1.000000 0.768616
1.000000 1.000000 0.768616
0.690186 0.415680 0.407837
0.690186 0.415680 0.407837
0.690186 0.415680 0.407837
0.690186 0.415680 0.407837
0.690186 0.415680 0.407837
0.584320 0.513733 0.525482
0.584320 0.513733 0.525482
0.584320 0.513733 0.525482
0.756866 0.537262 0.784302
0.756866 0.537262 0.784302
0.309814 0.686279 0.756866
0.313721 0.682343 0.756866
0.827454 0.560791 0.501953
0.862732 0.654907 0.552948
0.858826 0.643127 0.545105
1.000000 1.000000 0.768616
1.000000 1.000000 0.768616
1.000000 1.000000 0.768616
1.000000 1.000000 0.768616
1.000000 1.000000 0.768616
1.000000 1.000000 0.768616
1.000000 1.000000 0.768616
1.000000 1.000000 0.768616
1.000000 1.000000 0.768616
1.000000 1.000000 0.768616
0.690186 0.403931 0.403931
0.690186 0.415680 0.407837
0.690186 0.415680 0.407837
0.690186 0.415680 0.407837
0.690186 0.415680 0.407837
0.584320 0.513733 0.525482
0.584320 0.513733 0.525482
0.584320 0.513733 0.525482
0.635284 0.466675 0.470581
0.756866 0.537262 0.784302
0.839203 0.580383 0.509796
0.862732 0.658813 0.552948
0.874512 0.686279 0.564697
0.874512 0.686279 0.564697
0.854889 0.635284 0.541168
1.000000 1.000000 0.768616
1.000000 1.000000 0.768616
1.000000 1.000000 0.768616
1.000000 1.000000 0.768616
1.000000 1.000000 0.768616
1.000000 1.000000 0.768616
1.000000 1.000000 0.768616
1.000000 1.000000 0.768616
1.000000 1.000000 0.768616
1.000000 1.000000 0.768616
0.694122 0.427460 0.494110
0.721558 0.494110 0.682343
0.678436 0.447052 0.580383
0.678436 0.447052 0.580383
0.678436 0.447052 0.580383
0.584320 0.513733 0.525482
0.584320 0.513733 0.525482
0.584320 0.513733 0.525482
0.584320 0.513733 0.525482
0.756866 0.537262 0.784302
0.862732 0.658813 0.552948
0.870575 0.686279 0.564697
0.866669 0.666656 0.556854
0.874512 0.686279 0.564697
0.854889 0.635284 0.541168
1.000000 1.000000 0.768616
1.000000 1.000000 0.768616
1.000000 1.000000 0.768616
1.000000 1.000000 0.768616
1.000000 1.000000 0.768616
1.000000 1.000000 0.768616
1.000000 1.000000 0.768616
1.000000 1.000000 0.768616
1.000000 1.000000 0.768616
1.000000 1.000000 0.768616
0.694122 0.427460 0.494110
0.694122 0.439209 0.525482
0.729401 0.505890 0.709808
0.721558 0.494110 0.682343
0.694122 0.462738 0.619598
0.635284 0.466675 0.470581
0.584320 0.513733 0.525482
0.584320 0.513733 0.525482
0.584320 0.513733 0.525482
0.756866 0.537262 0.784302
0.862732 0.658813 0.552948
0.870575 0.686279 0.564697
0.866669 0.666656 0.556854
0.866669 0.666656 0.556854
0.874512 0.686279 0.564697
1.000000 1.000000 0.768616
1.000000 1.000000 0.768616
1.000000 1.000000 0.768616
1.000000 1.000000 0.768616
1.000000 1.000000 0.768616
1.000000 1.000000 0.768616
1.000000 1.000000 0.768616
1.000000 1.000000 0.768616
1.000000 1.000000 0.768616
1.000000 1.000000 0.768616
0.694122 0.431366 0.494110
0.694122 0.431366 0.494110
0.729401 0.505890 0.709808
0.729401 0.505890 0.709808
0.721558 0.494110 0.682343
0.686279 0.407837 0.423523
0.686279 0.407837 0.423523
0.686279 0.407837 0.423523
0.584320 0.513733 0.525482
0.584320 0.513733 0.525482
0.870575 0.686279 0.564697
0.870575 0.686279 0.564697
0.866669 0.666656 0.556854
0.866669 0.666656 0.556854
0.874512 0.686279 0.564697
1.000000 1.000000 0.768616
1.000000 1.000000 0.768616
1.000000 1.000000 0.768616
1.000000 1.000000 0.768616
1.000000 1.000000 0.768616
