LUTs/Standing Woman Cubist LUT.3DL
#Created by: Adobe Photoshop Export Color Lookup Plugin
#Description: Standing Woman Cubist Test.psb
0 33 66 99 132 165 198 231 264 297 330 363 396 429 462 495 528 561 594 627 660 693 726 759 792 825 858 891 924 957 990 1023
4095 4095 3147
4095 4095 3147
4095 4095 3147
4095 4095 3147
4095 4095 3147
4095 4095 3147
4095 4095 3147
4095 4095 3147
4095 4095 3147
4095 4095 3147
4095 4095 3147
4095 4095 3147
4095 4095 3147
4095 4095 3147
4095 4095 3147
4095 4095 3147
4095 4095 3147
4095 4095 3147
4095 4095 3147
4095 4095 3147
4095 4095 3147
4095 4095 3147
4095 4095 3147
4095 4095 3147
4095 4095 3147
4095 4095 3147
4095 4095 3147
4095 4095 3147
4095 4095 3147
4095 4095 3147
4095 4095 3147
4095 4095 3147
4095 4095 3147
4095 4095 3147
4095 4095 3147
4095 4095 3147
4095 4095 3147
4095 4095 3147
4095 4095 3147
4095 4095 3147
4095 4095 3147
4095 4095 3147
4095 4095 3147
4095 4095 3147
4095 4095 3147
4095 4095 3147
4095 4095 3147
4095 4095 3147
4095 4095 3147
4095 4095 3147
4095 4095 3147
4095 4095 3147
4095 4095 3147
4095 4095 3147
4095 4095 3147
4095 4095 3147
4095 4095 3147
4095 4095 3147
4095 4095 3147
4095 4095 3147
4095 4095 3147
4095 4095 3147
4095 4095 3147
4095 4095 3147
4095 4095 3147
4095 4095 3147
4095 4095 3147
4095 4095 3147
4095 4095 3147
4095 4095 3147
4095 4095 3147
4095 4095 3147
4095 4095 3147
4095 4095 3147
4095 4095 3147
4095 4095 3147
4095 4095 3147
4095 4095 3147
4095 4095 3147
4095 4095 3147
4095 4095 3147
4095 4095 3147
4095 4095 3147
4095 4095 3147
4095 4095 3147
4095 4095 3147
4095 4095 3147
4095 4095 3147
4095 4095 3147
4095 4095 3147
4095 4095 3147
4095 4095 3147
4095 4095 3147
4095 4095 3147
4095 4095 3147
4095 4095 3147
4095 4095 3147
4095 4095 3147
4095 4095 3147
4095 4095 3147
4095 4095 3147
4095 4095 3147
4095 4095 3147
4095 4095 3147
4095 4095 3147
4095 4095 3147
4095 4095 3147
4095 4095 3147
4095 4095 3147
4095 4095 3147
4095 4095 3147
4095 4095 3147
4095 4095 3147
4095 4095 3147
4095 4095 3147
4095 4095 3147
4095 4095 3147
4095 4095 3147
4095 4095 3147
4095 4095 3147
4095 4095 3147
4095 4095 3147
4095 4095 3147
4095 4095 3147
4095 4095 3147
4095 4095 3147
4095 4095 3147
4095 4095 3147
4095 4095 3147
4095 4095 3147
4095 4095 3147
4095 4095 3147
4095 4095 3147
4095 4095 3147
4095 4095 3147
4095 4095 3147
4095 4095 3147
4095 4095 3147
4095 4095 3147
4095 4095 3147
4095 4095 3147
4095 4095 3147
4095 4095 3147
4095 4095 3147
4095 4095 3147
4095 4095 3147
4095 4095 3147
4095 4095 3147
4095 4095 3147
4095 4095 3147
4095 4095 3147
4095 4095 3147
4095 4095 3147
4095 4095 3147
4095 4095 3147
4095 4095 3147
4095 4095 3147
4095 4095 3147
4095 4095 3147
4095 4095 3147
4095 4095 3147
4095 4095 3147
4095 4095 3147
4095 4095 3147
4095 4095 3147
4095 4095 3147
4095 4095 3147
4095 4095 3147
4095 4095 3147
4095 4095 3147
4095 4095 3147
4095 4095 3147
4095 4095 3147
4095 4095 3147
4095 4095 3147
4095 4095 3147
4095 4095 3147
4095 4095 3147
4095 4095 3147
4095 4095 3147
4095 4095 3147
4095 4095 3147
4095 4095 3147
4095 4095 3147
4095 4095 3147
4095 4095 3147
4095 4095 3147
4095 4095 3147
4095 4095 3147
4095 4095 3147
4095 4095 3147
4095 4095 3147
4095 4095 3147
4095 4095 3147
4095 4095 3147
4095 4095 3147
4095 4095 3147
4095 4095 3147
4095 4095 3147
4095 4095 3147
4095 4095 3147
4095 4095 3147
4095 4095 3147
4095 4095 3147
4095 4095 3147
4095 4095 3147
4095 4095 3147
4095 4095 3147
4095 4095 3147
4095 4095 3147
4095 4095 3147
4095 4095 3147
4095 4095 3147
4095 4095 3147
4095 4095 3147
4095 4095 3147
4095 4095 3147
4095 4095 3147
4095 4095 3147
3918 3726 2939
3276 2280 2120
1622 2634 2875
2714 1911 1895
2826 1702 1670
2826 1702 1670
2826 1702 1670
2826 1702 1670
2826 1702 1670
2826 1702 1670
2826 1702 1670
2826 1702 1670
2826 1654 1654
2794 1831 2393
2955 2023 2794
2987 2072 2907
2987 2072 2907
2987 2072 2907
2842 1799 2152
2842 1750 2023
2842 1750 2023
2842 1750 2023
2842 1750 2023
2842 1750 2023
2842 1750 2023
2842 1750 2023
2842 1750 2023
2842 1766 2023
2842 1766 2023
2842 1766 2023
2842 1766 2023
2842 1766 2023
2842 1766 2023
2842 1766 2023
2842 1766 2023
2842 1766 2023
2842 1766 2023
2842 1766 2023
2842 1766 2023
2842 1766 2023
2842 1766 2023
2842 1766 2023
2794 1734 1718
2794 1734 1718
2794 1734 1718
2794 1734 1718
2794 1734 1718
2794 1734 1718
2794 1734 1718
2794 1734 1718
2794 1734 1718
2794 1734 1718
2794 1734 1718
2794 1734 1718
2794 1734 1718
2794 1734 1718
2794 1734 1718
2794 1734 1718
2794 1734 1718
2794 1734 1718
2794 1734 1718
2794 1734 1718
2794 1734 1718
2794 1734 1718
2794 1734 1718
2794 1734 1718
2794 1734 1718
2794 1734 1718
1638 2666 2891
1670 2666 2875
1670 2666 2875
1670 2666 2875
1670 2666 2875
1670 2666 2875
1670 2666 2875
1670 2666 2875
1670 2666 2875
1670 2666 2875
1670 2666 2875
1670 2666 2875
1670 2666 2875
1670 2666 2875
1654 2666 2891
1654 2666 2891
1654 2666 2891
1654 2666 2891
1654 2666 2891
1654 2666 2891
1654 2666 2891
1654 2666 2891
1654 2666 2891
1654 2666 2891
1654 2666 2891
1654 2666 2891
1654 2666 2891
1654 2666 2891
1654 2666 2891
1654 2666 2891
1654 2666 2891
1654 2666 2891
1654 2666 2891
1654 2666 2891
3437 2393 2104
3437 2393 2104
3437 2393 2104
3437 2393 2104
3437 2393 2104
3437 2393 2104
3437 2393 2104
3437 2393 2104
3437 2393 2104
3437 2393 2104
3437 2393 2104
3437 2393 2104
3437 2393 2104
3437 2393 2104
3437 2393 2104
3437 2393 2104
3437 2393 2104
3437 2393 2104
3437 2393 2088
2441 2441 2473
2441 2441 2473
2441 2441 2473
2441 2441 2473
2441 2441 2473
2441 2441 2473
2441 2441 2473
2441 2441 2473
2441 2441 2473
2441 2441 2473
3437 2377 2088
3437 2377 2088
3437 2377 2088
3437 2377 2088
3437 2377 2088
3437 2377 2088
3437 2377 2088
3437 2377 2088
3437 2377 2088
3437 2377 2088
3437 2377 2088
3437 2377 2088
3437 2377 2088
3437 2377 2088
3437 2377 2088
3437 2377 2088
3437 2377 2088
3437 2377 2088
3437 2377 2088
3421 2361 2072
1429 2746 3019
1429 2746 3019
1429 2746 3019
1429 2746 3019
1429 2746 3019
3003 2312 2200
3196 2280 2088
3196 2280 2088
3196 2280 2088
3196 2280 2088
3196 2280 2088
3196 2280 2088
3196 2280 2088
3196 2280 2088
3196 2280 2088
3196 2280 2088
3196 2280 2088
3196 2280 2088
3196 2280 2088
3196 2280 2088
3196 2280 2088
3196 2280 2088
3196 2280 2088
3196 2280 2088
3196 2280 2088
3196 2280 2088
3196 2280 2088
3196 2280 2088
3196 2280 2088
3196 2280 2088
3196 2280 2088
3196 2280 2088
3196 2280 2088
3196 2280 2088
3196 2280 2088
3196 2280 2088
3196 2280 2088
3196 2280 2088
3196 2280 2088
3196 2280 2088
3003 2312 2200
1670 2666 2891
1670 2666 2891
1670 2666 2891
1670 2666 2891
1670 2666 2891
1670 2666 2891
1670 2666 2891
1670 2666 2891
1670 2666 2891
1670 2666 2891
1670 2666 2891
1654 2682 2891
1654 2682 2891
1654 2682 2891
1654 2682 2891
1654 2682 2891
1654 2682 2891
1654 2682 2891
1590 2698 2923
1590 2698 2923
1590 2698 2923
1590 2698 2923
1590 2698 2923
1590 2698 2939
1590 2698 2939
1590 2698 2939
1590 2698 2939
1590 2698 2939
1590 2698 2939
1590 2698 2939
2393 2104 2152
2393 2104 2152
2393 2104 2152
2393 2104 2152
2393 2104 2152
2393 2104 2152
2393 2104 2152
2393 2104 2152
2393 2104 2152
2393 2104 2152
2393 2104 2152
2393 2104 2152
2393 2104 2152
2393 2104 2152
2393 2104 2152
2393 2104 2152
2393 2104 2152
2393 2104 2152
2393 2104 2152
2393 2104 2152
2393 2104 2152
2393 2104 2152
2393 2104 2152
2393 2104 2152
2393 2104 2152
2393 2104 2152
2393 2104 2152
2393 2104 2152
2601 1911 1927
2810 1670 1734
2810 1670 1734
2810 1670 1734
2810 1670 1734
2810 1670 1734
2810 1670 1734
2810 1670 1734
2810 1670 1734
2810 1670 1734
2810 1670 1734
2810 1670 1734
2810 1670 1734
2810 1670 1734
2810 1670 1734
2810 1670 1734
2842 1783 2088
2955 1975 2601
2955 1975 2601
2955 1975 2601
2955 1975 2601
2955 1975 2601
2955 1975 2601
2955 1975 2601
2955 1975 2601
2955 1975 2601
2955 1975 2601
2955 1975 2601
2955 1975 2601
2955 1975 2601
2955 1975 2601
2955 1975 2601
2955 1975 2601
2955 1975 2601
2955 1975 2601
2955 1975 2601
2955 1975 2601
2955 1975 2601
2955 1975 2601
2955 1975 2618
2955 1975 2618
2955 1975 2618
2955 1975 2618
2955 1975 2618
2955 1975 2618
2955 1975 2618
2971 2023 2762
2971 2023 2762
2971 2023 2762
2971 2023 2762
2971 2023 2762
2971 2023 2762
2987 2023 2778
2842 1783 2088
2842 1783 2088
2842 1783 2088
2842 1783 2088
2842 1783 2088
2842 1783 2088
2842 1783 2088
2842 1783 2088
2842 1783 2088
2842 1783 2088
2842 1783 2088
2842 1783 2088
2842 1783 2088
2842 1783 2088
2055 2329 2473
2055 2329 2473
1815 2489 2666
1815 2489 2666
1815 2489 2666
1815 2489 2666
1815 2489 2666
1815 2489 2666
1815 2489 2666
1815 2489 2666
1815 2489 2666
1815 2489 2666
1815 2489 2666
1815 2489 2666
1815 2489 2666
1815 2489 2666
1815 2489 2666
1815 2489 2666
1815 2489 2666
1815 2489 2666
1815 2489 2666
1815 2489 2666
1815 2489 2666
1815 2489 2666
1815 2489 2666
1815 2489 2666
1815 2489 2666
2055 2329 2473
2826 1686 1766
2826 1686 1766
2826 1686 1766
2826 1686 1766
2826 1686 1766
2826 1686 1766
2826 1686 1766
2858 1783 2104
2650 1702 2088
2650 1702 2088
2650 1702 2088
2650 1702 2088
2650 1702 2088
2650 1702 2088
2650 1702 2088
2650 1702 2088
2650 1702 2088
2650 1702 2088
2650 1702 2088
2650 1702 2088
2650 1702 2088
2650 1702 2088
2650 1702 2088
2650 1702 2088
2650 1702 2088
2650 1702 2088
2650 1702 2088
2505 1558 1783
2810 1927 2698
2810 1927 2698
2810 1927 2698
2810 1927 2698
2810 1927 2682
2810 1927 2682
2810 1927 2682
2810 1927 2682
2810 1927 2682
2810 1927 2682
2810 1927 2682
2810 1927 2682
2810 1927 2682
2810 1927 2682
2810 1927 2682
2810 1927 2682
2810 1927 2682
2810 1927 2682
2810 1927 2682
2810 1927 2682
2810 1927 2682
2810 1927 2682
2810 1927 2682
2810 1927 2682
2810 1927 2682
2810 1927 2682
2810 1927 2682
2810 1927 2682
2810 1927 2682
2810 1927 2682
2842 1670 1654
2842 1670 1654
2842 1670 1654
2842 1670 1654
2842 1670 1654
2842 1670 1654
2842 1670 1654
2842 1670 1654
2842 1670 1654
2842 1670 1654
2842 1670 1654
2842 1670 1654
2842 1670 1654
2842 1670 1654
2842 1670 1654
2842 1670 1654
2842 1670 1654
2842 1670 1654
2842 1670 1654
2842 1670 1654
2842 1670 1654
2842 1670 1654
2842 1670 1654
2842 1670 1654
2842 1670 1654
2842 1670 1654
2842 1670 1654
2842 1670 1654
2842 1670 1654
2842 1670 1654
2842 1670 1654
2842 1670 1654
2842 1670 1654
2842 1670 1654
2842 1670 1654
2842 1670 1654
2842 1670 1654
2842 1670 1654
2842 1670 1654
2842 1670 1654
1156 2842 3180
1156 2842 3180
1269 2810 3099
1269 2810 3099
1269 2810 3099
1269 2810 3099
1269 2810 3099
1269 2810 3099
1269 2810 3099
1269 2810 3099
1269 2810 3099
1269 2810 3099
1269 2810 3099
1269 2810 3099
1269 2810 3099
1269 2810 3099
1269 2810 3099
3437 2377 2088
3437 2377 2088
3437 2377 2088
3533 2698 2264
3533 2698 2264
3533 2698 2264
3533 2698 2264
3533 2698 2264
3533 2698 2264
3533 2698 2264
3533 2698 2264
3533 2698 2264
3533 2698 2264
3533 2698 2264
3533 2698 2264
3533 2698 2264
3533 2698 2264
3533 2698 2264
3533 2698 2264
3533 2698 2264
3533 2698 2264
3565 2810 2312
3565 2810 2312
3565 2810 2312
3565 2810 2312
3565 2810 2312
3565 2810 2312
3565 2810 2312
3565 2810 2312
3565 2810 2312
3565 2810 2312
3565 2810 2312
3565 2810 2312
3565 2810 2312
3565 2810 2312
3565 2810 2312
3565 2810 2312
3565 2810 2312
3565 2810 2312
3565 2810 2312
3565 2810 2312
3565 2810 2312
3565 2810 2312
3565 2810 2312
3565 2810 2312
3565 2810 2312
3565 2810 2312
3565 2810 2312
3565 2810 2312
3565 2810 2312
3565 2810 2312
3565 2810 2312
3565 2810 2312
3565 2810 2312
3565 2810 2312
3565 2810 2312
3565 2810 2312
3565 2810 2312
3565 2810 2312
3565 2810 2312
3565 2810 2312
3565 2810 2312
3565 2810 2312
3565 2810 2312
3565 2810 2312
3565 2810 2312
3565 2810 2312
3565 2810 2312
3565 2810 2312
3565 2810 2312
3565 2794 2329
3421 2361 2072
3228 2280 2104
3228 2280 2104
3228 2280 2104
3228 2280 2104
3228 2280 2104
3228 2280 2104
3228 2280 2104
3228 2280 2104
3228 2280 2104
3228 2280 2104
3228 2280 2104
3228 2280 2104
3228 2280 2104
3228 2280 2104
3228 2280 2104
3228 2280 2104
3228 2280 2104
3228 2280 2104
3228 2280 2104
3228 2280 2104
3228 2280 2104
3212 2280 2104
2232 2489 2569
2232 2489 2569
2232 2489 2569
2232 2489 2569
2232 2489 2569
2232 2489 2569
2232 2489 2569
2232 2489 2569
2232 2489 2569
2232 2489 2569
2232 2489 2569
2232 2489 2569
2232 2489 2569
2232 2489 2569
1911 2601 2746
1510 2730 2971
1510 2730 2971
1510 2730 2971
1510 2730 2971
1510 2730 2971
1510 2730 2971
1510 2730 2971
1510 2730 2971
1510 2730 2971
1510 2730 2971
1510 2730 2971
1510 2730 2971
1510 2730 2971
1510 2730 2971
1510 2730 2971
1510 2730 2971
1510 2730 2971
1510 2730 2971
1510 2730 2971
1510 2730 2971
3501 2601 2200
3501 2601 2200
3501 2601 2200
3501 2601 2200
3501 2601 2200
3501 2601 2200
3501 2601 2200
3501 2601 2200
3517 2618 2216
3533 2698 2264
3517 2634 2232
3710 3196 2569
4047 3983 3067
4095 4095 3147
4095 4095 3147
4095 4095 3147
4095 4095 3147
4095 4095 3147
4095 4095 3147
4095 4095 3147
4095 4095 3147
4095 4095 3147
4095 4095 3147
4095 4095 3147
4095 4095 3147
4095 4095 3147
4095 4095 3147
4095 4095 3147
4095 4095 3147
4095 4095 3147
4095 4095 3147
4095 4095 3147
4095 4095 3147
4095 4095 3147
4095 4095 3147
4095 4095 3147
4095 4095 3147
4095 4095 3147
4095 4095 3147
4095 4095 3147
4095 4095 3147
4095 4095 3147
4095 4095 3147
4095 4095 3147
4095 4095 3147
4095 4095 3147
4095 4095 3147
4095 4095 3147
4095 4095 3147
4095 4095 3147
4095 4095 3147
4095 4095 3147
4095 4095 3147
4095 4095 3147
4095 4095 3147
4095 4095 3147
4095 4095 3147
4095 4095 3147
4095 4095 3147
4095 4095 3147
4095 4095 3147
4095 4095 3147
4095 4095 3147
4095 4095 3147
4095 4095 3147
4095 4095 3147
4095 4095 3147
4095 4095 3147
4095 4095 3147
4095 4095 3147
4095 4095 3147
4095 4095 3147
4095 4095 3147
4095 4095 3147
4095 4095 3147
4095 4095 3147
4095 4095 3147
4095 4095 3147
4095 4095 3147
4095 4095 3147
4095 4095 3147
4095 4095 3147
4095 4095 3147
4095 4095 3147
4095 4095 3147
4095 4095 3147
4095 4095 3147
4095 4095 3147
4095 4095 3147
4095 4095 3147
4095 4095 3147
4095 4095 3147
