LUTs/Standing Woman Cubist LUT.CUBE
#Created by: Adobe Photoshop Export Color Lookup Plugin
TITLE "Standing Woman Cubist Test.psb"
#LUT size
LUT_3D_SIZE 8
#data domain
#LUT data points
DOMAIN_MIN 0.000000 0.000000 0.000000
DOMAIN_MAX 0.903226 0.903226 0.903226
1.000000 1.000000 0.768616
1.000000 1.000000 0.768616
1.000000 1.000000 0.768616
1.000000 1.000000 0.768616
1.000000 1.000000 0.768616
1.000000 1.000000 0.768616
1.000000 1.000000 0.768616
1.000000 1.000000 0.768616
1.000000 1.000000 0.768616
1.000000 1.000000 0.768616
1.000000 1.000000 0.768616
1.000000 1.000000 0.768616
1.000000 1.000000 0.768616
1.000000 1.000000 0.768616
1.000000 1.000000 0.768616
1.000000 1.000000 0.768616
0.694122 0.431366 0.494110
0.694122 0.431366 0.494110
0.694122 0.431366 0.494110
0.694122 0.431366 0.494110
0.694122 0.439209 0.525482
0.729401 0.505890 0.709808
0.733337 0.505890 0.705872
0.733337 0.501953 0.701965
0.780396 0.556854 0.509796
0.780396 0.556854 0.509796
0.780396 0.556854 0.509796
0.780396 0.556854 0.509796
0.349030 0.670593 0.737244
0.349030 0.670593 0.737244
0.349030 0.670593 0.737244
0.349030 0.670593 0.737244
0.721558 0.482361 0.639221
0.725494 0.494110 0.674500
0.725494 0.494110 0.674500
0.725494 0.494110 0.674500
0.725494 0.494110 0.674500
0.725494 0.494110 0.674500
0.725494 0.494110 0.674500
0.627441 0.403931 0.498047
0.694122 0.407837 0.403931
0.694122 0.407837 0.403931
0.694122 0.407837 0.403931
0.694122 0.407837 0.403931
0.827454 0.560791 0.501953
0.827454 0.560791 0.501953
0.827454 0.560791 0.501953
0.650970 0.580383 0.576477
0.788239 0.556854 0.513733
0.545105 0.607849 0.627441
0.545105 0.607849 0.627441
0.545105 0.607849 0.627441
0.545105 0.607849 0.627441
0.549011 0.607849 0.627441
0.549011 0.607849 0.627441
0.376465 0.662750 0.721558
1.000000 1.000000 0.768616
1.000000 1.000000 0.768616
1.000000 1.000000 0.768616
1.000000 1.000000 0.768616
1.000000 1.000000 0.768616
1.000000 1.000000 0.768616
1.000000 1.000000 0.768616
1.000000 1.000000 0.768616
1.000000 1.000000 0.768616
1.000000 1.000000 0.768616
1.000000 1.000000 0.768616
1.000000 1.000000 0.768616
1.000000 1.000000 0.768616
1.000000 1.000000 0.768616
1.000000 1.000000 0.768616
1.000000 1.000000 0.768616
1.000000 1.000000 0.768616
1.000000 1.000000 0.768616
1.000000 1.000000 0.768616
1.000000 1.000000 0.768616
1.000000 1.000000 0.768616
1.000000 1.000000 0.768616
1.000000 1.000000 0.768616
1.000000 1.000000 0.768616
0.694122 0.431366 0.494110
0.694122 0.431366 0.494110
0.682343 0.423523 0.419617
0.682343 0.423523 0.419617
0.682343 0.423523 0.419617
0.717651 0.482361 0.643127
0.745087 0.521576 0.749023
0.745087 0.521576 0.749023
0.780396 0.556854 0.509796
0.780396 0.556854 0.509796
0.780396 0.556854 0.509796
0.780396 0.556854 0.509796
0.780396 0.556854 0.509796
0.349030 0.670593 0.737244
0.349030 0.670593 0.737244
0.349030 0.670593 0.737244
0.725494 0.494110 0.674500
0.725494 0.494110 0.674500
0.725494 0.494110 0.674500
0.725494 0.494110 0.674500
0.725494 0.494110 0.674500
0.725494 0.494110 0.674500
0.745087 0.521576 0.749023
0.627441 0.403931 0.498047
0.694122 0.407837 0.403931
0.694122 0.407837 0.403931
0.694122 0.407837 0.403931
0.694122 0.407837 0.403931
0.827454 0.560791 0.501953
0.827454 0.560791 0.501953
0.827454 0.560791 0.501953
0.650970 0.580383 0.576477
0.784302 0.556854 0.513733
0.545105 0.607849 0.627441
0.545105 0.607849 0.627441
0.545105 0.607849 0.627441
0.545105 0.607849 0.627441
0.470581 0.631378 0.670593
0.372559 0.662750 0.725494
0.376465 0.662750 0.721558
1.000000 1.000000 0.768616
1.000000 1.000000 0.768616
1.000000 1.000000 0.768616
1.000000 1.000000 0.768616
1.000000 1.000000 0.768616
1.000000 1.000000 0.768616
1.000000 1.000000 0.768616
1.000000 1.000000 0.768616
1.000000 1.000000 0.768616
1.000000 1.000000 0.768616
1.000000 1.000000 0.768616
1.000000 1.000000 0.768616
1.000000 1.000000 0.768616
1.000000 1.000000 0.768616
1.000000 1.000000 0.768616
1.000000 1.000000 0.768616
1.000000 1.000000 0.768616
1.000000 1.000000 0.768616
1.000000 1.000000 0.768616
1.000000 1.000000 0.768616
1.000000 1.000000 0.768616
1.000000 1.000000 0.768616
1.000000 1.000000 0.768616
1.000000 1.000000 0.768616
0.682343 0.423523 0.419617
0.682343 0.423523 0.419617
0.682343 0.423523 0.419617
0.682343 0.423523 0.419617
0.682343 0.423523 0.419617
0.717651 0.482361 0.643127
0.745087 0.521576 0.749023
0.745087 0.521576 0.749023
0.780396 0.556854 0.509796
0.780396 0.556854 0.509796
0.780396 0.556854 0.509796
0.780396 0.556854 0.509796
0.780396 0.556854 0.509796
0.784302 0.552948 0.509796
0.784302 0.552948 0.509796
0.349030 0.670593 0.737244
0.725494 0.494110 0.674500
0.725494 0.494110 0.674500
0.725494 0.494110 0.674500
0.725494 0.494110 0.674500
0.725494 0.494110 0.674500
0.725494 0.494110 0.674500
0.627441 0.403931 0.501953
0.611755 0.380402 0.443146
0.694122 0.407837 0.403931
0.694122 0.407837 0.403931
0.694122 0.407837 0.403931
0.694122 0.407837 0.403931
0.827454 0.560791 0.501953
0.827454 0.560791 0.501953
0.827454 0.560791 0.501953
0.827454 0.560791 0.501953
0.545105 0.607849 0.627441
0.545105 0.607849 0.627441
0.545105 0.607849 0.627441
0.545105 0.607849 0.627441
0.372559 0.662750 0.725494
0.372559 0.662750 0.725494
0.372559 0.662750 0.725494
0.376465 0.662750 0.721558
1.000000 1.000000 0.768616
1.000000 1.000000 0.768616
1.000000 1.000000 0.768616
1.000000 1.000000 0.768616
1.000000 1.000000 0.768616
1.000000 1.000000 0.768616
1.000000 1.000000 0.768616
1.000000 1.000000 0.768616
1.000000 1.000000 0.768616
1.000000 1.000000 0.768616
1.000000 1.000000 0.768616
1.000000 1.000000 0.768616
1.000000 1.000000 0.768616
1.000000 1.000000 0.768616
1.000000 1.000000 0.768616
1.000000 1.000000 0.768616
1.000000 1.000000 0.768616
1.000000 1.000000 0.768616
1.000000 1.000000 0.768616
1.000000 1.000000 0.768616
1.000000 1.000000 0.768616
1.000000 1.000000 0.768616
1.000000 1.000000 0.768616
1.000000 1.000000 0.768616
0.682343 0.423523 0.419617
0.682343 0.423523 0.419617
0.682343 0.423523 0.419617
0.682343 0.423523 0.419617
0.682343 0.423523 0.419617
0.698029 0.407837 0.403931
0.745087 0.521576 0.749023
0.745087 0.521576 0.749023
0.780396 0.556854 0.509796
0.780396 0.556854 0.509796
0.780396 0.556854 0.509796
0.780396 0.556854 0.509796
0.780396 0.556854 0.509796
0.780396 0.556854 0.509796
0.784302 0.552948 0.509796
0.784302 0.552948 0.509796
0.694122 0.435303 0.509796
0.694122 0.435303 0.509796
0.694122 0.435303 0.509796
0.694122 0.435303 0.509796
0.694122 0.435303 0.509796
0.698029 0.447052 0.545105
0.725494 0.494110 0.674500
0.643127 0.419617 0.537262
0.694122 0.407837 0.403931
0.694122 0.407837 0.403931
0.694122 0.407837 0.403931
0.694122 0.407837 0.403931
0.827454 0.560791 0.501953
0.827454 0.560791 0.501953
0.827454 0.560791 0.501953
0.827454 0.560791 0.501953
0.545105 0.607849 0.627441
0.545105 0.607849 0.627441
0.545105 0.607849 0.627441
0.368622 0.666656 0.725494
0.372559 0.662750 0.725494
0.372559 0.662750 0.725494
0.376465 0.662750 0.721558
0.376465 0.662750 0.721558
1.000000 1.000000 0.768616
1.000000 1.000000 0.768616
1.000000 1.000000 0.768616
1.000000 1.000000 0.768616
1.000000 1.000000 0.768616
1.000000 1.000000 0.768616
1.000000 1.000000 0.768616
1.000000 1.000000 0.768616
1.000000 1.000000 0.768616
1.000000 1.000000 0.768616
1.000000 1.000000 0.768616
1.000000 1.000000 0.768616
1.000000 1.000000 0.768616
1.000000 1.000000 0.768616
1.000000 1.000000 0.768616
1.000000 1.000000 0.768616
1.000000 1.000000 0.768616
1.000000 1.000000 0.768616
1.000000 1.000000 0.768616
1.000000 1.000000 0.768616
1.000000 1.000000 0.768616
1.000000 1.000000 0.768616
1.000000 1.000000 0.768616
1.000000 1.000000 0.768616
0.682343 0.423523 0.419617
0.682343 0.423523 0.419617
0.682343 0.423523 0.419617
0.682343 0.423523 0.419617
0.682343 0.423523 0.419617
0.698029 0.407837 0.403931
0.745087 0.521576 0.749023
0.745087 0.521576 0.749023
0.780396 0.556854 0.509796
0.780396 0.556854 0.509796
0.780396 0.556854 0.509796
0.780396 0.556854 0.509796
0.780396 0.556854 0.509796
0.780396 0.556854 0.509796
0.780396 0.556854 0.509796
0.733337 0.564697 0.537262
0.694122 0.435303 0.509796
0.694122 0.435303 0.509796
0.694122 0.435303 0.509796
0.694122 0.435303 0.509796
0.694122 0.435303 0.509796
0.725494 0.494110 0.674500
0.725494 0.494110 0.674500
0.627441 0.403931 0.498047
0.694122 0.407837 0.403931
0.694122 0.407837 0.403931
0.694122 0.407837 0.403931
0.827454 0.560791 0.501953
0.827454 0.560791 0.501953
0.827454 0.560791 0.501953
0.827454 0.560791 0.501953
0.827454 0.560791 0.501953
0.545105 0.607849 0.627441
0.470581 0.631378 0.670593
0.368622 0.666656 0.725494
0.368622 0.666656 0.725494
0.372559 0.662750 0.725494
0.372559 0.662750 0.725494
0.376465 0.662750 0.721558
0.376465 0.662750 0.721558
1.000000 1.000000 0.768616
1.000000 1.000000 0.768616
1.000000 1.000000 0.768616
1.000000 1.000000 0.768616
1.000000 1.000000 0.768616
1.000000 1.000000 0.768616
1.000000 1.000000 0.768616
1.000000 1.000000 0.768616
1.000000 1.000000 0.768616
1.000000 1.000000 0.768616
1.000000 1.000000 0.768616
1.000000 1.000000 0.768616
1.000000 1.000000 0.768616
1.000000 1.000000 0.768616
1.000000 1.000000 0.768616
1.000000 1.000000 0.768616
1.000000 1.000000 0.768616
1.000000 1.000000 0.768616
1.000000 1.000000 0.768616
1.000000 1.000000 0.768616
1.000000 1.000000 0.768616
1.000000 1.000000 0.768616
1.000000 1.000000 0.768616
1.000000 1.000000 0.768616
0.682343 0.423523 0.419617
0.682343 0.423523 0.419617
0.682343 0.423523 0.419617
0.682343 0.423523 0.419617
0.682343 0.423523 0.419617
0.682343 0.423523 0.419617
0.717651 0.482361 0.643127
0.745087 0.521576 0.749023
0.780396 0.556854 0.509796
0.780396 0.556854 0.509796
0.780396 0.556854 0.509796
0.780396 0.556854 0.509796
0.780396 0.556854 0.509796
0.411774 0.650970 0.701965
0.411774 0.650970 0.701965
0.415680 0.650970 0.701965
0.694122 0.435303 0.509796
0.694122 0.435303 0.509796
0.694122 0.435303 0.509796
0.694122 0.435303 0.509796
0.694122 0.435303 0.509796
0.725494 0.494110 0.674500
0.760773 0.541168 0.796082
0.733337 0.509796 0.725494
0.694122 0.407837 0.403931
0.694122 0.407837 0.403931
0.694122 0.407837 0.403931
0.827454 0.560791 0.501953
0.827454 0.560791 0.501953
0.827454 0.560791 0.501953
0.827454 0.560791 0.501953
0.862732 0.650970 0.549011
0.368622 0.666656 0.725494
0.368622 0.666656 0.725494
0.368622 0.666656 0.725494
0.372559 0.662750 0.725494
0.372559 0.662750 0.725494
0.372559 0.662750 0.725494
0.376465 0.662750 0.721558
0.376465 0.662750 0.721558
1.000000 1.000000 0.768616
1.000000 1.000000 0.768616
1.000000 1.000000 0.768616
1.000000 1.000000 0.768616
1.000000 1.000000 0.768616
1.000000 1.000000 0.768616
1.000000 1.000000 0.768616
1.000000 1.000000 0.768616
1.000000 1.000000 0.768616
1.000000 1.000000 0.768616
1.000000 1.000000 0.768616
1.000000 1.000000 0.768616
1.000000 1.000000 0.768616
1.000000 1.000000 0.768616
1.000000 1.000000 0.768616
1.000000 1.000000 0.768616
1.000000 1.000000 0.768616
1.000000 1.000000 0.768616
1.000000 1.000000 0.768616
1.000000 1.000000 0.768616
1.000000 1.000000 0.768616
1.000000 1.000000 0.768616
1.000000 1.000000 0.768616
1.000000 1.000000 0.768616
0.682343 0.423523 0.419617
0.682343 0.423523 0.419617
0.682343 0.423523 0.419617
0.682343 0.423523 0.419617
0.682343 0.423523 0.419617
0.682343 0.423523 0.419617
0.717651 0.482361 0.643127
0.749023 0.525482 0.752930
0.780396 0.556854 0.509796
0.780396 0.556854 0.509796
0.407837 0.650970 0.701965
0.407837 0.650970 0.701965
0.407837 0.650970 0.701965
0.411774 0.650970 0.701965
0.411774 0.650970 0.701965
0.403931 0.631378 0.686279
0.501953 0.568634 0.603912
0.694122 0.435303 0.509796
0.694122 0.435303 0.509796
0.694122 0.435303 0.509796
0.694122 0.435303 0.509796
0.725494 0.494110 0.674500
0.760773 0.541168 0.796082
0.760773 0.541168 0.796082
0.309814 0.686279 0.756866
0.694122 0.407837 0.403931
0.694122 0.407837 0.403931
0.827454 0.560791 0.501953
0.827454 0.560791 0.501953
0.827454 0.560791 0.501953
0.862732 0.654907 0.552948
0.858826 0.643127 0.545105
0.368622 0.666656 0.725494
0.368622 0.666656 0.725494
0.368622 0.666656 0.725494
0.372559 0.662750 0.725494
0.372559 0.662750 0.725494
0.372559 0.662750 0.725494
0.376465 0.662750 0.721558
0.376465 0.662750 0.721558
1.000000 1.000000 0.768616
1.000000 1.000000 0.768616
1.000000 1.000000 0.768616
1.000000 1.000000 0.768616
1.000000 1.000000 0.768616
1.000000 1.000000 0.768616
1.000000 1.000000 0.768616
1.000000 1.000000 0.768616
1.000000 1.000000 0.768616
1.000000 1.000000 0.768616
1.000000 1.000000 0.768616
1.000000 1.000000 0.768616
1.000000 1.000000 0.768616
1.000000 1.000000 0.768616
1.000000 1.000000 0.768616
1.000000 1.000000 0.768616
1.000000 1.000000 0.768616
1.000000 1.000000 0.768616
1.000000 1.000000 0.768616
1.000000 1.000000 0.768616
1.000000 1.000000 0.768616
1.000000 1.000000 0.768616
1.000000 1.000000 0.768616
1.000000 1.000000 0.768616
0.682343 0.423523 0.419617
0.682343 0.423523 0.419617
0.682343 0.423523 0.419617
0.682343 0.423523 0.419617
0.682343 0.423523 0.419617
0.682343 0.423523 0.419617
0.721558 0.482361 0.647064
0.749023 0.525482 0.752930
0.407837 0.650970 0.705872
0.407837 0.650970 0.705872
0.407837 0.650970 0.701965
0.407837 0.650970 0.701965
0.407837 0.650970 0.701965
0.411774 0.650970 0.701965
0.411774 0.650970 0.701965
0.403931 0.631378 0.690186
0.443146 0.607849 0.650970
0.694122 0.435303 0.509796
0.694122 0.435303 0.509796
0.694122 0.435303 0.509796
0.701965 0.447052 0.545105
0.760773 0.541168 0.796082
0.760773 0.541168 0.796082
0.760773 0.541168 0.796082
0.309814 0.686279 0.756866
0.282349 0.694122 0.772552
0.694122 0.407837 0.403931
0.827454 0.560791 0.501953
0.827454 0.560791 0.501953
0.862732 0.654907 0.552948
0.862732 0.654907 0.552948
0.858826 0.643127 0.545105
0.368622 0.666656 0.725494
0.368622 0.666656 0.725494
0.368622 0.666656 0.725494
0.372559 0.662750 0.725494
0.372559 0.662750 0.725494
0.372559 0.662750 0.725494
0.376465 0.662750 0.721558
0.376465 0.662750 0.721558
1.000000 1.000000 0.768616
1.000000 1.000000 0.768616
1.000000 1.000000 0.768616
1.000000 1.000000 0.768616
1.000000 1.000000 0.768616
1.000000 1.000000 0.768616
1.000000 1.000000 0.768616
1.000000 1.000000 0.768616
