LUTs/Standing Woman Cubist LUT.CUBE
#Created by: Adobe Photoshop Export Color Lookup Plugin
TITLE "Standing Woman Cubist Test.psb"
#LUT size
LUT_3D_SIZE 32
#data domain
DOMAIN_MIN 0.0 0.0 0.0
DOMAIN_MAX 1.0 1.0 1.0
#LUT data points
1.000000 1.000000 0.768616
1.000000 1.000000 0.768616
1.000000 1.000000 0.768616
1.000000 1.000000 0.768616
1.000000 1.000000 0.768616
1.000000 1.000000 0.768616
1.000000 1.000000 0.768616
1.000000 1.000000 0.768616
1.000000 1.000000 0.768616
1.000000 1.000000 0.768616
1.000000 1.000000 0.768616
1.000000 1.000000 0.768616
1.000000 1.000000 0.768616
1.000000 1.000000 0.768616
1.000000 1.000000 0.768616
1.000000 1.000000 0.768616
1.000000 1.000000 0.768616
1.000000 1.000000 0.768616
1.000000 1.000000 0.768616
1.000000 1.000000 0.768616
1.000000 1.000000 0.768616
1.000000 1.000000 0.768616
1.000000 1.000000 0.768616
1.000000 1.000000 0.768616
1.000000 1.000000 0.768616
1.000000 1.000000 0.768616
1.000000 1.000000 0.768616
1.000000 1.000000 0.768616
1.000000 1.000000 0.768616
1.000000 1.000000 0.768616
1.000000 1.000000 0.768616
1.000000 1.000000 0.768616
1.000000 1.000000 0.768616
1.000000 1.000000 0.768616
1.000000 1.000000 0.768616
1.000000 1.000000 0.768616
1.000000 1.000000 0.768616
1.000000 1.000000 0.768616
1.000000 1.000000 0.768616
1.000000 1.000000 0.768616
1.000000 1.000000 0.768616
1.000000 1.000000 0.768616
1.000000 1.000000 0.768616
1.000000 1.000000 0.768616
1.000000 1.000000 0.768616
1.000000 1.000000 0.768616
1.000000 1.000000 0.768616
1.000000 1.000000 0.768616
1.000000 1.000000 0.768616
1.000000 1.000000 0.768616
1.000000 1.000000 0.768616
1.000000 1.000000 0.768616
1.000000 1.000000 0.768616
1.000000 1.000000 0.768616
1.000000 1.000000 0.768616
1.000000 1.000000 0.768616
1.000000 1.000000 0.768616
1.000000 1.000000 0.768616
1.000000 1.000000 0.768616
1.000000 1.000000 0.768616
1.000000 1.000000 0.768616
1.000000 1.000000 0.768616
1.000000 1.000000 0.768616
1.000000 1.000000 0.768616
1.000000 1.000000 0.768616
1.000000 1.000000 0.768616
1.000000 1.000000 0.768616
1.000000 1.000000 0.768616
1.000000 1.000000 0.768616
1.000000 1.000000 0.768616
1.000000 1.000000 0.768616
1.000000 1.000000 0.768616
1.000000 1.000000 0.768616
1.000000 1.000000 0.768616
1.000000 1.000000 0.768616
1.000000 1.000000 0.768616
1.000000 1.000000 0.768616
1.000000 1.000000 0.768616
1.000000 1.000000 0.768616
1.000000 1.000000 0.768616
1.000000 1.000000 0.768616
1.000000 1.000000 0.768616
1.000000 1.000000 0.768616
1.000000 1.000000 0.768616
1.000000 1.000000 0.768616
1.000000 1.000000 0.768616
1.000000 1.000000 0.768616
1.000000 1.000000 0.768616
1.000000 1.000000 0.768616
1.000000 1.000000 0.768616
1.000000 1.000000 0.768616
1.000000 1.000000 0.768616
1.000000 1.000000 0.768616
1.000000 1.000000 0.768616
1.000000 1.000000 0.768616
1.000000 1.000000 0.768616
1.000000 1.000000 0.768616
1.000000 1.000000 0.768616
1.000000 1.000000 0.768616
1.000000 1.000000 0.768616
1.000000 1.000000 0.768616
1.000000 1.000000 0.768616
1.000000 1.000000 0.768616
1.000000 1.000000 0.768616
1.000000 1.000000 0.768616
1.000000 1.000000 0.768616
1.000000 1.000000 0.768616
1.000000 1.000000 0.768616
1.000000 1.000000 0.768616
1.000000 1.000000 0.768616
1.000000 1.000000 0.768616
1.000000 1.000000 0.768616
1.000000 1.000000 0.768616
1.000000 1.000000 0.768616
1.000000 1.000000 0.768616
1.000000 1.000000 0.768616
1.000000 1.000000 0.768616
1.000000 1.000000 0.768616
1.000000 1.000000 0.768616
1.000000 1.000000 0.768616
1.000000 1.000000 0.768616
1.000000 1.000000 0.768616
1.000000 1.000000 0.768616
1.000000 1.000000 0.768616
1.000000 1.000000 0.768616
1.000000 1.000000 0.768616
1.000000 1.000000 0.768616
1.000000 1.000000 0.768616
1.000000 1.000000 0.768616
1.000000 1.000000 0.768616
1.000000 1.000000 0.768616
1.000000 1.000000 0.768616
1.000000 1.000000 0.768616
1.000000 1.000000 0.768616
1.000000 1.000000 0.768616
1.000000 1.000000 0.768616
1.000000 1.000000 0.768616
1.000000 1.000000 0.768616
1.000000 1.000000 0.768616
1.000000 1.000000 0.768616
1.000000 1.000000 0.768616
1.000000 1.000000 0.768616
1.000000 1.000000 0.768616
1.000000 1.000000 0.768616
1.000000 1.000000 0.768616
1.000000 1.000000 0.768616
1.000000 1.000000 0.768616
1.000000 1.000000 0.768616
1.000000 1.000000 0.768616
1.000000 1.000000 0.768616
1.000000 1.000000 0.768616
1.000000 1.000000 0.768616
1.000000 1.000000 0.768616
1.000000 1.000000 0.768616
1.000000 1.000000 0.768616
1.000000 1.000000 0.768616
1.000000 1.000000 0.768616
1.000000 1.000000 0.768616
1.000000 1.000000 0.768616
1.000000 1.000000 0.768616
1.000000 1.000000 0.768616
1.000000 1.000000 0.768616
1.000000 1.000000 0.768616
1.000000 1.000000 0.768616
1.000000 1.000000 0.768616
1.000000 1.000000 0.768616
1.000000 1.000000 0.768616
1.000000 1.000000 0.768616
1.000000 1.000000 0.768616
1.000000 1.000000 0.768616
1.000000 1.000000 0.768616
1.000000 1.000000 0.768616
1.000000 1.000000 0.768616
1.000000 1.000000 0.768616
1.000000 1.000000 0.768616
1.000000 1.000000 0.768616
1.000000 1.000000 0.768616
1.000000 1.000000 0.768616
1.000000 1.000000 0.768616
1.000000 1.000000 0.768616
1.000000 1.000000 0.768616
1.000000 1.000000 0.768616
1.000000 1.000000 0.768616
1.000000 1.000000 0.768616
1.000000 1.000000 0.768616
1.000000 1.000000 0.768616
1.000000 1.000000 0.768616
1.000000 1.000000 0.768616
1.000000 1.000000 0.768616
1.000000 1.000000 0.768616
1.000000 1.000000 0.768616
1.000000 1.000000 0.768616
1.000000 1.000000 0.768616
1.000000 1.000000 0.768616
1.000000 1.000000 0.768616
1.000000 1.000000 0.768616
1.000000 1.000000 0.768616
1.000000 1.000000 0.768616
1.000000 1.000000 0.768616
1.000000 1.000000 0.768616
1.000000 1.000000 0.768616
1.000000 1.000000 0.768616
1.000000 1.000000 0.768616
1.000000 1.000000 0.768616
1.000000 1.000000 0.768616
1.000000 1.000000 0.768616
1.000000 1.000000 0.768616
1.000000 1.000000 0.768616
1.000000 1.000000 0.768616
1.000000 1.000000 0.768616
1.000000 1.000000 0.768616
1.000000 1.000000 0.768616
1.000000 1.000000 0.768616
1.000000 1.000000 0.768616
1.000000 1.000000 0.768616
1.000000 1.000000 0.768616
1.000000 1.000000 0.768616
1.000000 1.000000 0.768616
1.000000 1.000000 0.768616
1.000000 1.000000 0.768616
1.000000 1.000000 0.768616
1.000000 1.000000 0.768616
1.000000 1.000000 0.768616
1.000000 1.000000 0.768616
0.690186 0.415680 0.407837
0.690186 0.415680 0.407837
0.690186 0.415680 0.407837
0.690186 0.415680 0.407837
0.690186 0.415680 0.407837
0.690186 0.415680 0.407837
0.690186 0.415680 0.407837
0.690186 0.415680 0.407837
0.690186 0.415680 0.407837
0.690186 0.415680 0.407837
0.690186 0.415680 0.407837
0.690186 0.415680 0.407837
0.690186 0.415680 0.407837
0.690186 0.415680 0.407837
0.690186 0.415680 0.407837
0.690186 0.415680 0.407837
0.690186 0.415680 0.407837
0.690186 0.415680 0.407837
0.690186 0.415680 0.407837
0.690186 0.415680 0.407837
0.690186 0.415680 0.407837
0.690186 0.415680 0.407837
0.690186 0.415680 0.407837
0.690186 0.415680 0.407837
0.690186 0.415680 0.407837
0.690186 0.415680 0.407837
0.690186 0.415680 0.407837
0.690186 0.415680 0.407837
0.690186 0.415680 0.407837
0.690186 0.415680 0.407837
0.690186 0.415680 0.407837
0.690186 0.415680 0.407837
0.694122 0.431366 0.494110
0.694122 0.431366 0.494110
0.694122 0.431366 0.494110
0.694122 0.431366 0.494110
0.694122 0.431366 0.494110
0.694122 0.431366 0.494110
0.694122 0.431366 0.494110
0.694122 0.431366 0.494110
0.694122 0.431366 0.494110
0.694122 0.431366 0.494110
0.694122 0.431366 0.494110
0.694122 0.431366 0.494110
0.694122 0.431366 0.494110
0.694122 0.431366 0.494110
0.694122 0.431366 0.494110
0.694122 0.427460 0.494110
0.694122 0.439209 0.525482
0.729401 0.505890 0.709808
0.729401 0.505890 0.709808
0.729401 0.505890 0.709808
0.729401 0.505890 0.709808
0.729401 0.505890 0.709808
0.729401 0.505890 0.709808
0.721558 0.494110 0.682343
0.733337 0.505890 0.705872
0.733337 0.505890 0.705872
0.733337 0.505890 0.705872
0.733337 0.505890 0.705872
0.733337 0.501953 0.701965
0.733337 0.501953 0.701965
0.733337 0.501953 0.701965
0.733337 0.501953 0.701965
0.407837 0.650970 0.701965
0.399994 0.650970 0.705872
0.682343 0.423523 0.419617
0.682343 0.423523 0.419617
0.682343 0.423523 0.419617
0.682343 0.423523 0.419617
0.682343 0.423523 0.419617
0.682343 0.423523 0.419617
0.682343 0.423523 0.419617
0.682343 0.423523 0.419617
0.682343 0.423523 0.419617
0.682343 0.423523 0.419617
0.682343 0.423523 0.419617
0.682343 0.423523 0.419617
0.682343 0.423523 0.419617
0.682343 0.423523 0.419617
0.682343 0.423523 0.419617
0.682343 0.423523 0.419617
0.682343 0.423523 0.419617
0.682343 0.423523 0.419617
0.682343 0.423523 0.419617
0.682343 0.423523 0.419617
0.682343 0.423523 0.419617
0.698029 0.407837 0.403931
0.721558 0.482361 0.647064
0.721558 0.482361 0.647064
0.749023 0.525482 0.752930
0.749023 0.525482 0.752930
0.749023 0.525482 0.752930
0.749023 0.525482 0.752930
0.749023 0.525482 0.752930
0.749023 0.525482 0.752930
0.403931 0.650970 0.705872
0.403931 0.650970 0.705872
0.403931 0.650970 0.705872
0.403931 0.650970 0.705872
0.403931 0.650970 0.705872
0.403931 0.650970 0.705872
0.403931 0.650970 0.705872
0.403931 0.650970 0.705872
0.403931 0.650970 0.705872
0.403931 0.650970 0.705872
0.403931 0.650970 0.705872
0.403931 0.650970 0.705872
0.403931 0.650970 0.705872
0.403931 0.650970 0.705872
0.403931 0.650970 0.705872
0.403931 0.650970 0.705872
0.403931 0.650970 0.705872
0.407837 0.650970 0.701965
0.839203 0.584320 0.513733
0.839203 0.584320 0.513733
0.839203 0.584320 0.513733
0.839203 0.584320 0.513733
0.839203 0.584320 0.513733
0.839203 0.584320 0.513733
0.839203 0.584320 0.513733
0.839203 0.584320 0.513733
0.839203 0.584320 0.509796
0.600006 0.596069 0.600006
0.600006 0.596069 0.600006
0.600006 0.596069 0.600006
0.686279 0.403931 0.419617
0.686279 0.403931 0.419617
0.839203 0.580383 0.509796
0.839203 0.580383 0.509796
0.839203 0.580383 0.509796
0.839203 0.580383 0.509796
0.839203 0.580383 0.509796
0.839203 0.580383 0.509796
0.839203 0.580383 0.509796
0.839203 0.580383 0.509796
0.839203 0.580383 0.509796
0.839203 0.580383 0.509796
0.839203 0.580383 0.509796
0.839203 0.580383 0.509796
0.839203 0.580383 0.509796
0.839203 0.580383 0.509796
0.839203 0.580383 0.509796
0.839203 0.580383 0.509796
0.839203 0.580383 0.509796
0.839203 0.580383 0.509796
0.839203 0.576477 0.505890
0.356873 0.666656 0.733337
0.356873 0.666656 0.733337
0.356873 0.666656 0.733337
0.356873 0.666656 0.733337
0.356873 0.666656 0.733337
0.356873 0.666656 0.733337
0.356873 0.666656 0.733337
0.356873 0.666656 0.733337
0.356873 0.666656 0.733337
0.349030 0.670593 0.733337
0.388245 0.650970 0.709808
0.388245 0.650970 0.709808
0.388245 0.650970 0.709808
0.780396 0.556854 0.509796
0.780396 0.556854 0.509796
0.780396 0.556854 0.509796
0.780396 0.556854 0.509796
0.780396 0.556854 0.509796
0.780396 0.556854 0.509796
0.780396 0.556854 0.509796
0.780396 0.556854 0.509796
0.780396 0.556854 0.509796
0.780396 0.556854 0.509796
0.780396 0.556854 0.509796
0.780396 0.556854 0.509796
0.780396 0.556854 0.509796
0.780396 0.556854 0.509796
0.733337 0.564697 0.537262
0.349030 0.670593 0.737244
0.349030 0.670593 0.737244
0.349030 0.670593 0.737244
0.349030 0.670593 0.737244
0.349030 0.670593 0.737244
0.349030 0.670593 0.737244
0.349030 0.670593 0.737244
0.349030 0.670593 0.737244
0.349030 0.670593 0.737244
0.349030 0.670593 0.737244
0.349030 0.670593 0.737244
0.349030 0.670593 0.737244
0.349030 0.670593 0.737244
0.349030 0.670593 0.737244
0.352936 0.670593 0.733337
0.352936 0.670593 0.733337
0.352936 0.670593 0.733337
0.407837 0.650970 0.705872
0.407837 0.650970 0.705872
0.407837 0.650970 0.705872
0.407837 0.650970 0.705872
0.407837 0.650970 0.705872
0.407837 0.650970 0.705872
0.407837 0.650970 0.705872
0.407837 0.650970 0.705872
0.407837 0.650970 0.705872
0.407837 0.650970 0.705872
0.407837 0.650970 0.701965
0.407837 0.650970 0.701965
0.407837 0.650970 0.701965
0.407837 0.650970 0.701965
0.407837 0.650970 0.701965
0.407837 0.650970 0.701965
0.407837 0.650970 0.701965
0.407837 0.650970 0.701965
0.407837 0.650970 0.701965
0.407837 0.650970 0.701965
0.407837 0.650970 0.701965
0.407837 0.650970 0.701965
0.411774 0.650970 0.701965
0.403931 0.631378 0.690186
0.403931 0.631378 0.690186
0.403931 0.631378 0.690186
0.403931 0.631378 0.690186
0.403931 0.631378 0.690186
0.403931 0.631378 0.690186
0.403931 0.631378 0.690186
0.458832 0.600006 0.639221
0.513733 0.564697 0.596069
0.584320 0.513733 0.525482
0.584320 0.513733 0.525482
0.584320 0.513733 0.525482
0.584320 0.513733 0.525482
0.584320 0.513733 0.525482
0.584320 0.513733 0.525482
0.584320 0.513733 0.525482
0.584320 0.513733 0.525482
0.584320 0.513733 0.525482
0.584320 0.513733 0.525482
0.584320 0.513733 0.525482
0.584320 0.513733 0.525482
0.584320 0.513733 0.525482
0.584320 0.513733 0.525482
0.584320 0.513733 0.525482
0.584320 0.513733 0.525482
0.584320 0.513733 0.525482
0.584320 0.513733 0.525482
0.635284 0.466675 0.470581
0.756866 0.537262 0.784302
0.756866 0.537262 0.784302
0.756866 0.537262 0.784302
0.756866 0.537262 0.784302
0.756866 0.537262 0.784302
0.756866 0.537262 0.784302
0.756866 0.537262 0.784302
0.756866 0.537262 0.784302
0.756866 0.537262 0.784302
0.756866 0.537262 0.784302
0.756866 0.537262 0.784302
0.756866 0.537262 0.784302
0.584320 0.513733 0.525482
0.686279 0.407837 0.423523
0.686279 0.407837 0.423523
0.686279 0.407837 0.423523
0.686279 0.407837 0.423523
0.686279 0.407837 0.423523
0.686279 0.407837 0.423523
0.686279 0.407837 0.423523
0.686279 0.407837 0.423523
0.686279 0.407837 0.423523
0.686279 0.407837 0.423523
0.686279 0.407837 0.423523
0.686279 0.407837 0.423523
0.686279 0.407837 0.423523
0.686279 0.407837 0.423523
0.686279 0.407837 0.423523
0.686279 0.407837 0.423523
0.686279 0.407837 0.423523
0.686279 0.407837 0.423523
0.686279 0.407837 0.423523
0.686279 0.407837 0.423523
0.686279 0.407837 0.423523
0.686279 0.407837 0.423523
0.686279 0.407837 0.423523
0.686279 0.407837 0.423523
0.686279 0.407837 0.423523
0.686279 0.407837 0.423523
0.686279 0.407837 0.423523
0.686279 0.407837 0.423523
0.686279 0.407837 0.423523
0.686279 0.407837 0.423523
0.635284 0.466675 0.470581
0.635284 0.466675 0.470581
0.721558 0.482361 0.639221
0.721558 0.482361 0.639221
0.721558 0.482361 0.639221
0.725494 0.494110 0.674500
0.725494 0.494110 0.674500
0.725494 0.494110 0.674500
0.725494 0.494110 0.674500
0.725494 0.494110 0.674500
0.725494 0.494110 0.674500
0.725494 0.494110 0.674500
0.725494 0.494110 0.674500
0.725494 0.494110 0.674500
0.725494 0.494110 0.674500
0.725494 0.494110 0.674500
0.725494 0.494110 0.674500
0.725494 0.494110 0.674500
0.725494 0.494110 0.674500
0.725494 0.494110 0.674500
0.725494 0.494110 0.674500
0.725494 0.494110 0.674500
0.725494 0.494110 0.674500
0.725494 0.494110 0.674500
0.725494 0.494110 0.674500
0.725494 0.494110 0.674500
0.725494 0.494110 0.674500
0.745087 0.521576 0.745087
0.627441 0.403931 0.501953
0.627441 0.403931 0.501953
0.627441 0.403931 0.498047
0.627441 0.403931 0.498047
0.627441 0.403931 0.498047
0.627441 0.403931 0.498047
0.443146 0.607849 0.650970
0.443146 0.607849 0.650970
0.443146 0.607849 0.650970
0.447052 0.603912 0.650970
0.505890 0.568634 0.600006
0.694122 0.435303 0.509796
0.694122 0.435303 0.509796
0.694122 0.435303 0.509796
0.694122 0.435303 0.509796
0.694122 0.435303 0.509796
0.694122 0.435303 0.509796
0.694122 0.435303 0.509796
0.694122 0.435303 0.509796
0.694122 0.435303 0.509796
0.694122 0.435303 0.509796
0.701965 0.447052 0.545105
0.729401 0.494110 0.678436
0.729401 0.494110 0.678436
0.760773 0.541168 0.796082
0.760773 0.541168 0.796082
0.760773 0.541168 0.796082
0.760773 0.541168 0.796082
0.760773 0.541168 0.796082
0.760773 0.541168 0.796082
0.760773 0.541168 0.796082
0.760773 0.541168 0.796082
0.760773 0.541168 0.796082
0.760773 0.541168 0.796082
0.760773 0.541168 0.796082
0.760773 0.541168 0.796082
0.733337 0.513733 0.725494
0.627441 0.403931 0.498047
0.647064 0.415680 0.509796
0.647064 0.415680 0.509796
0.647064 0.415680 0.509796
0.647064 0.415680 0.509796
0.647064 0.415680 0.509796
0.647064 0.415680 0.509796
0.647064 0.415680 0.509796
0.647064 0.415680 0.509796
0.647064 0.415680 0.509796
0.647064 0.415680 0.509796
0.647064 0.415680 0.509796
0.647064 0.415680 0.509796
0.647064 0.415680 0.509796
0.647064 0.415680 0.509796
0.698029 0.435303 0.509796
0.698029 0.435303 0.509796
0.698029 0.435303 0.509796
0.729401 0.498047 0.678436
0.729401 0.498047 0.678436
0.729401 0.498047 0.678436
0.749023 0.525482 0.752930
0.611755 0.380402 0.443146
0.611755 0.380402 0.443146
0.611755 0.380402 0.443146
0.611755 0.380402 0.443146
0.682343 0.466675 0.650970
0.682343 0.466675 0.650970
0.682343 0.466675 0.650970
0.682343 0.466675 0.650970
0.682343 0.466675 0.647064
0.682343 0.466675 0.647064
0.682343 0.466675 0.647064
0.686279 0.470581 0.654907
0.686279 0.470581 0.654907
0.686279 0.470581 0.654907
0.686279 0.470581 0.654907
0.686279 0.470581 0.654907
0.686279 0.466675 0.650970
0.686279 0.466675 0.650970
0.686279 0.466675 0.650970
0.611755 0.380402 0.435303
0.647064 0.415680 0.509796
0.647064 0.415680 0.509796
0.647064 0.415680 0.509796
0.647064 0.415680 0.509796
0.647064 0.415680 0.509796
0.647064 0.415680 0.509796
0.611755 0.380402 0.435303
0.682343 0.466675 0.650970
0.682343 0.466675 0.650970
0.682343 0.466675 0.650970
0.682343 0.466675 0.650970
0.670593 0.458832 0.635284
0.513733 0.313721 0.352936
0.513733 0.313721 0.352936
0.513733 0.313721 0.352936
0.513733 0.313721 0.352936
0.513733 0.313721 0.352936
0.513733 0.313721 0.352936
0.513733 0.313721 0.352936
0.513733 0.313721 0.352936
0.513733 0.313721 0.352936
0.513733 0.313721 0.352936
0.513733 0.313721 0.352936
0.694122 0.407837 0.403931
0.694122 0.407837 0.403931
0.694122 0.407837 0.403931
0.694122 0.407837 0.403931
0.694122 0.407837 0.403931
0.694122 0.407837 0.403931
0.694122 0.407837 0.403931
0.694122 0.407837 0.403931
0.694122 0.407837 0.403931
0.694122 0.407837 0.403931
0.694122 0.407837 0.403931
0.694122 0.407837 0.403931
0.694122 0.407837 0.403931
0.694122 0.407837 0.403931
0.827454 0.560791 0.501953
0.827454 0.560791 0.501953
0.827454 0.560791 0.501953
0.827454 0.560791 0.501953
0.827454 0.560791 0.501953
0.827454 0.560791 0.501953
0.827454 0.560791 0.501953
0.827454 0.560791 0.501953
0.827454 0.560791 0.501953
0.827454 0.560791 0.501953
0.827454 0.560791 0.501953
0.811768 0.560791 0.509796
0.650970 0.580383 0.576477
0.650970 0.580383 0.576477
0.650970 0.580383 0.576477
0.650970 0.580383 0.576477
0.650970 0.580383 0.572540
0.650970 0.580383 0.572540
0.309814 0.686279 0.756866
0.309814 0.686279 0.756866
0.309814 0.686279 0.756866
0.309814 0.686279 0.756866
0.309814 0.686279 0.756866
0.313721 0.682343 0.756866
0.313721 0.682343 0.756866
0.313721 0.682343 0.756866
0.282349 0.694122 0.772552
0.694122 0.407837 0.403931
0.694122 0.407837 0.403931
0.827454 0.560791 0.501953
0.827454 0.560791 0.501953
0.827454 0.560791 0.501953
0.827454 0.560791 0.501953
0.862732 0.654907 0.552948
0.862732 0.654907 0.552948
0.862732 0.654907 0.552948
0.862732 0.654907 0.552948
0.862732 0.654907 0.552948
0.862732 0.654907 0.552948
0.862732 0.654907 0.552948
0.874512 0.686279 0.564697
0.870575 0.686279 0.564697
0.854889 0.635284 0.541168
0.854889 0.635284 0.541168
0.858826 0.643127 0.545105
0.858826 0.643127 0.545105
0.858826 0.643127 0.545105
0.858826 0.643127 0.545105
0.858826 0.643127 0.545105
0.858826 0.643127 0.545105
0.870575 0.686279 0.564697
0.870575 0.686279 0.564697
0.870575 0.686279 0.564697
0.870575 0.686279 0.564697
0.870575 0.686279 0.564697
0.870575 0.686279 0.564697
0.870575 0.686279 0.564697
0.870575 0.686279 0.564697
0.870575 0.686279 0.564697
0.870575 0.686279 0.564697
0.870575 0.686279 0.564697
0.870575 0.686279 0.564697
0.870575 0.686279 0.564697
0.870575 0.682343 0.568634
0.866669 0.666656 0.556854
0.866669 0.666656 0.556854
0.866669 0.666656 0.556854
0.866669 0.666656 0.556854
0.866669 0.666656 0.556854
0.866669 0.666656 0.556854
0.866669 0.666656 0.556854
0.866669 0.666656 0.556854
0.866669 0.666656 0.556854
0.866669 0.666656 0.556854
0.866669 0.666656 0.556854
0.866669 0.666656 0.556854
0.866669 0.666656 0.556854
0.866669 0.666656 0.556854
0.866669 0.666656 0.556854
0.866669 0.666656 0.556854
0.874512 0.686279 0.564697
0.874512 0.686279 0.564697
0.870575 0.686279 0.564697
0.870575 0.686279 0.564697
0.870575 0.686279 0.564697
0.870575 0.686279 0.564697
0.870575 0.686279 0.564697
0.870575 0.686279 0.564697
0.870575 0.686279 0.564697
0.870575 0.686279 0.564697
0.870575 0.686279 0.564697
0.870575 0.686279 0.564697
0.870575 0.686279 0.564697
0.870575 0.686279 0.564697
0.870575 0.686279 0.564697
0.870575 0.686279 0.564697
0.870575 0.686279 0.564697
0.870575 0.686279 0.564697
0.870575 0.686279 0.564697
0.870575 0.682343 0.568634
0.866669 0.666656 0.556854
0.866669 0.666656 0.556854
0.866669 0.666656 0.556854
0.866669 0.666656 0.556854
0.866669 0.666656 0.556854
0.866669 0.666656 0.556854
0.866669 0.666656 0.556854
0.862732 0.662750 0.556854
0.827454 0.564697 0.505890
0.827454 0.564697 0.505890
0.827454 0.564697 0.505890
0.827454 0.564697 0.505890
0.827454 0.564697 0.505890
0.827454 0.564697 0.505890
0.788239 0.556854 0.513733
0.788239 0.556854 0.513733
0.788239 0.556854 0.513733
0.784302 0.556854 0.513733
0.545105 0.607849 0.627441
0.545105 0.607849 0.627441
0.545105 0.607849 0.627441
0.545105 0.607849 0.627441
0.545105 0.607849 0.627441
0.545105 0.607849 0.627441
0.545105 0.607849 0.627441
0.545105 0.607849 0.627441
0.545105 0.607849 0.627441
0.545105 0.607849 0.627441
0.545105 0.607849 0.627441
0.545105 0.607849 0.627441
0.545105 0.607849 0.627441
0.549011 0.607849 0.627441
0.549011 0.607849 0.627441
0.549011 0.607849 0.627441
0.549011 0.607849 0.627441
0.549011 0.607849 0.627441
0.549011 0.607849 0.627441
0.549011 0.607849 0.627441
0.549011 0.607849 0.627441
0.470581 0.631378 0.670593
0.376465 0.662750 0.721558
0.376465 0.662750 0.721558
0.376465 0.662750 0.721558
0.376465 0.662750 0.721558
0.376465 0.662750 0.721558
0.376465 0.662750 0.721558
0.368622 0.666656 0.725494
0.368622 0.666656 0.725494
0.368622 0.666656 0.725494
0.368622 0.666656 0.725494
0.368622 0.666656 0.725494
0.368622 0.666656 0.725494
0.368622 0.666656 0.725494
0.368622 0.666656 0.725494
0.368622 0.666656 0.725494
0.368622 0.666656 0.725494
0.368622 0.666656 0.725494
0.372559 0.662750 0.725494
0.372559 0.662750 0.725494
0.372559 0.662750 0.725494
0.372559 0.662750 0.725494
0.372559 0.662750 0.725494
0.372559 0.662750 0.725494
0.372559 0.662750 0.725494
0.372559 0.662750 0.725494
0.372559 0.662750 0.725494
0.372559 0.662750 0.725494
0.372559 0.662750 0.725494
0.372559 0.662750 0.725494
0.376465 0.662750 0.721558
0.376465 0.662750 0.721558
0.376465 0.662750 0.721558
0.376465 0.662750 0.721558
0.376465 0.662750 0.721558
0.376465 0.662750 0.721558
0.376465 0.662750 0.721558
0.376465 0.662750 0.721558
0.376465 0.662750 0.721558
1.000000 1.000000 0.768616
1.000000 1.000000 0.768616
1.000000 1.000000 0.768616
1.000000 1.000000 0.768616
1.000000 1.000000 0.768616
1.000000 1.000000 0.768616
1.000000 1.000000 0.768616
1.000000 1.000000 0.768616
1.000000 1.000000 0.768616
1.000000 1.000000 0.768616
1.000000 1.000000 0.768616
1.000000 1.000000 0.768616
1.000000 1.000000 0.768616
1.000000 1.000000 0.768616
1.000000 1.000000 0.768616
1.000000 1.000000 0.768616
1.000000 1.000000 0.768616
1.000000 1.000000 0.768616
1.000000 1.000000 0.768616
1.000000 1.000000 0.768616
1.000000 1.000000 0.768616
1.000000 1.000000 0.768616
1.000000 1.000000 0.768616
1.000000 1.000000 0.768616
1.000000 1.000000 0.768616
1.000000 1.000000 0.768616
1.000000 1.000000 0.768616
1.000000 1.000000 0.768616
1.000000 1.000000 0.768616
1.000000 1.000000 0.768616
1.000000 1.000000 0.768616
0.992157 0.984314 0.756866
1.000000 1.000000 0.768616
1.000000 1.000000 0.768616
1.000000 1.000000 0.768616
1.000000 1.000000 0.768616
1.000000 1.000000 0.768616
1.000000 1.000000 0.768616
1.000000 1.000000 0.768616
1.000000 1.000000 0.768616
1.000000 1.000000 0.768616
1.000000 1.000000 0.768616
1.000000 1.000000 0.768616
1.000000 1.000000 0.768616
1.000000 1.000000 0.768616
1.000000 1.000000 0.768616
1.000000 1.000000 0.768616
1.000000 1.000000 0.768616
1.000000 1.000000 0.768616
